svg/outline/snowflake.svg

<svg width="24" height="24" viewBox="0 0 24 24" fill="none" xmlns="http://www.w3.org/2000/svg">
<path d="M11.9999 4L11.9999 20" stroke="black" stroke-linecap="round" stroke-linejoin="round"/>
<path d="M19.9999 12H3.99991" stroke="black" stroke-linecap="round" stroke-linejoin="round"/>
<path d="M18.4999 8.4856L14.9999 11.9856L18.4999 15.4856" stroke="black" stroke-linecap="round" stroke-linejoin="round"/>
<path d="M5.49991 15.4856L8.99991 11.9856L5.49991 8.4856" stroke="black" stroke-linecap="round" stroke-linejoin="round"/>
<path d="M15.4999 18.4856L11.9999 14.9856L8.49991 18.4856" stroke="black" stroke-linecap="round" stroke-linejoin="round"/>
<path d="M8.49991 5.4856L11.9999 8.9856L15.4999 5.4856" stroke="black" stroke-linecap="round" stroke-linejoin="round"/>
</svg>

<svg xmlns="http://www.w3.org/2000/svg" fill="none" viewBox="0 0 24 24" stroke="currentColor">
  <path stroke-linecap="round" stroke-linejoin="round" d="M12 4v16M20 12H4M18.5 8.486l-3.5 3.5 3.5 3.5M5.5 15.486l3.5-3.5-3.5-3.5M15.5 18.486l-3.5-3.5-3.5 3.5M8.5 5.486l3.5 3.5 3.5-3.5"/>
</svg>
